X:1
T:Miss Mountan -- Hornpipe
R:hornpipe
B:Cole's 1000 Fiddle Tunes
M:2/4
L:1/16
K:F
vcB|Acfa gbeg|fcdc BAGF|EGce cBAG|FEGE C3uB,|
vA,CFA cfaf|edbg fedc|fcdb gece|f2f2f2:|
|:vga|gece geba|gfed ^ceAG|FAdf Adfa|gfef defd|
cAGF EGCB,|A,CFA cfaf|Bdgb EGce|f2f2f2:|
